X:260
T: Ritou chulai shai shangang
N: C0407
O: China,Jiangxi, Yongxin
S: IV, 230, 1)]
N: Hier wird sogar noch Hunan- Dialekt gesprochen, weil der Ort recht
N: nah an Hunan liegt.
N: Vereinzelt Verzierungen.
R: Shange. Laodong yu aiqing]
M: 3/4
L: 1/8
K: D
B2A2B2 | e6 | f2efe2 | B6 |
d2e2e2 | B6 | d2B2AB | A6 |
B2BAB2 | A6 | B2d2A2 | B6 |
d2efe2 | B6 | d2B2AB | A6

@@@ Tune index: 6261
